X:1
T:Oh, How He Lied
M:3/4
L:1/4
K:A
 E| E C D| E C D| E c3/2 A/2| E3| D B3/2 G/2| D3| C c3/2 A/2| E2 E|\
 E C D| E C D| E c3/2 A/2| E3| A3| F2 G| A3-| A2||
